!!!COM: Charles Gounod
!!!CNT: Francais
!!!TXO: Francais
!!!OTL: "A\ une jeune fille"
!!!LYR: Augier
!!!OPR: 
!!!OPS: Op. 
!!!ONM: No.
!!!ENC: Emily Thomas
!!!YOR: CD Sheet Music French Art Songs, The Ultimate Collection
!!!YOR: CD Sheet Music, LLC 2003
!!!ODT: 1869/
!!NB: Vocal melody and text encoded.
**kern	**silbe
=1	=1
*clefG2	*
*k[f#]	*
*M4/4	*
*MM[Andante (tre\s tranquille)]	*
1r	.
=2	=2
1r	.
=3	=3
1r	.
=4	=4
1r	.
=5	=5
1r	.
=6	=6
1r	.
=7	=7
1r	.
=8	=8
1r	.
=9	=9
1r	.
=10	=10
1r	.
=11	=11
1r	.
=12	=12
1r	.
=13	=13
1r	.
=14	=14
1r	.
=15	=15
1r	.
=16	=16
2r	.
{8g	{Pauvre
8f#	en-
4e	-fant
=17	=17
8b	qui
8g	vou-
8a	-lez
8b	com-
8cc	-bat-
8bb	-tre
8a	la
8cc	na-
=18	=18
4cc	-tu-
8b}	-re}
8r	.
{8dd	{Qui
8ee	dou-
4dd	-tez
=19	=19
8b	de
8a	l'a-
8g	-mour
8b	et
8b	re-
8a	-pous-
8a	-sez
8e	sa
=20	=20
4f#}	loi}
8r	.
{8b	{Qu'av-
8dd	-ez-
8cc	-vous
8cc	donc
8a	souf-
=21	=21
4f#}	-fert}
8r	.
{8b	{Et
8dd	par
8cc	quell-
8cc	-le
8a	bles-
=22	=22
4cc	-su-
8b}	-re}
{8b	{Ce
8b	Coeur
8cc	de
8dd	dix-
8ee	-huit
=23	=23
8dd	ans
8cc	a-t-
8e	-il
8a	per-
4.f#	-du
8g	la
=24	=24
[4e	foi?
8e]}	|}
8r	.
{4g	{La
8cc	fleur
8b	d'A-
=25	=25
8a	-vril
8dd	est-
8dd	-elle
8cc	a\
8cc	tout
8b	ja-
8.b	-mais
16a	fa-
=26	=26
4a	-ne/-
8g}	-e,}
{8cc	{Pour
8cc	a-
8dd	-voir
8.b	fris-
16cc	-son-
=27	=27
4a}	-ne/}
{8b	{Sous
8cc	un
4ee	souf-
8dd	-fle
8a	du
=28	=28
4b}	Nord?}
8r	.
{8b	{La
8dd	cou-
8cc	-pe
8b	de
8a	vos
=29	=29
[4g#	jours
8g#]}	|}
{8b	{est-
8b	-elle
8cc	em-
8dd	-pois-
8ee	-on-
=30	=30
8dd	-ne/-
8cc}	-e}
{8a	{Par
8b	un
4cc	pleur
8b	de
8a	vos
=31	=31
4gn	yeux
8g	qui
8b	cou-
8b	-la
8a	|
8g	sur
8a	le
=32	=32
4b	bord?
8r	.
{8b	Moi
8b	qui
8b	suis
8b	de/-
8b	ja\
=33	=33
4a#}	vieux}
{8a#	{dans
8a#	les
4an	cho-
8an	-ses
8an	hu-
=34	=34
4g	-mai-
8g}	-nes,}
{8dd	{Dont
8dd	le
8dd	Coeur
8dd	a
8dd	sai-
=35	=35
4cc#}	-gne/}
{8cc#	{plus
8cc#	sou-
4ccn	-vent
8ccn	qu'a\
8ccn	son
=36	=36
4b}	tour,}
8r	.
{8dd	{Je
8dd	ne
8b	re-
8a	-gret-
8g	-te
=37	=37
4g}	pas}
{8cc	{le
8ee	sang
4ffn	pur
8ee	dont
8dd	mes
=38	=38
8dd	vein-
8cc}	-es}
{8a	{Ont
8b	rou-
4cc	-gi
8b	les
8a	buis-
=39	=39
8g}	-sons}
{8b	{ou\
8g#	je
8b	cher-
4.dd#	-chais
8cc#	l'a-
=40	=40
[4b	-mour!
8b]}	|}
8r	.
{4b	{Car
8b	ce
8ddn	que
=41	=41
8dd	m'ont
8a	ap-
8a	-pris
8b	la
8cc	ronce
8g	et
8g	les
8a	e/-
=42	=42
4b	-pi-
8b}	-nes,}
{8b	{C'est
8b	qu'il
8cc#	n'est
8dd	rien
8ee	de
=43	=43
8ee	bon
8dd	au
[4dd	mon-
8dd]	|
8cc#}	-de}
{8b	{que
8a	d'ai-
=44	=44
4dd}	-mer.}
8r	.
{8dd	{Que
8dd	me^-
8dd	-me
8dd	les
8dd	dou-
=45	=45
4cc#	-leurs
8cc#	de
8cc#	l'a-
4ccn}	-mour}
{8ccn	{sont
8ccn	di-
=46	=46
4b	-vi-
8b}	-nes,}
{8b	{Et
8b	qu'il
8ee	vaut
8ff#	mieux
8ee	bri-
=47	=47
8ee	-ser
8a	son
[4cc	Coeur
8cc]}	|}
{8b	{que
8b	le
8b	fer-
=48	=48
2b}	-mer!}
8r	.
{8dd	{Mieux
8cc#	vaut
8g#	bri-
=49	=49
8g#	-ser
8b	son
[4a	Coeur
8a]}	|}
{8a	{que
8cc#	le
8b	fer0
=50	=50
2g#}	-mer!}
8r	.
{8b	{Mieux
8a	vaut
8e#	bri-
=51	=51
8e#	-ser
8g#	son
[4f#	Coeur
8f#]	|
8f#	que
8a	le
8g	fer-
=52	=52
[2e	-mer!
4e]}	|}
4r	.
==	==
*-	*-
